App.xcframework/ios-arm64/App.framework/flutter_assets/packages/vib_resource/assets/icons/airlines/QH.svg

<svg fill="none" height="25" viewBox="0 0 87 25" width="87" xmlns="http://www.w3.org/2000/svg"><path d="m80.0705 2.1001h.4024c.1006 4.4.2012 8.8.2012 13.2-1.6095 0-3.2189.2-4.7278.4 0-3.5-.1006-7-.2012-10.6.8047-.7 1.5089-1.4 2.213-2.1.503-.5 1.3077-.5 2.1124-.9z" fill="#63b152"/><path d="m82.2833 2.1001h1.4082c.1006.5.2012.9 0 1.4-.9053 3.4-1.71 6.8-2.6153 10.2 0-3.8.2012-7.7.3017-11.5.3018-.1.6036-.1.9054-.1z" fill="#63b152"/><path d="m69.4073 11.9002c1.8107-2.1 3.6213-4.2 5.7337-6.2-.1006 3.4 0 6.7-.1006 10.1-.7041.1-1.4083.3-2.1124.5 0-2.6.1006-5.2 0-7.8-.4024 2.6-.3018 5.3-.6035 7.9-1.6095.4-3.219 1-4.7278 1.6.2012-1.4.1006-2.9.3018-4.3.4023-.7 1.0059-1.2 1.5088-1.8z" fill="#63b152"/><path d="m60.8574 22.3001c1.9112-2.3 3.7219-4.6 5.6331-6.9.1006 1 .2012 2 .3018 2.9-2.213 1.1-4.1242 2.5-5.9349 4z" fill="#63b152"/><g fill="#02508b"><path d="m1.10645 9.3002c0-.6.60355-.6 1.1065-.6h4.22482c1.10649 0 2.21299.9 2.41418 2 .20118.7-.30178 1.3-.60355 1.9.30177.6.70414 1.1.60355 1.8-.1006 1.2-1.20709 2.1-2.41418 2.1s-2.31359 0-3.52068 0c-.60355 0-1.30769.1-1.91123-.3v-.1s0 .1.10059.1c0-2.3-.10059-4.6 0-6.9zm1.81064.8v1.8c1.1065 0 2.21299.1 3.31949 0 .50296 0 1.00591-.7.80473-1.2-.10059-.4-.60354-.6-1.00591-.6-1.1065-.1-2.11241 0-3.11831 0zm0 3.2v1.8c1.1065-.1 2.31359.1 3.42008-.1.80473-.2.80473-1.5-.10059-1.7-1.1065-.1-2.21299 0-3.31949 0z"/><path d="m12.9757 9.6003c.503-1.3 2.9171-1.3 3.3195.1 1.0059 2.3 2.0118 4.6 3.0177 6.8-.6035 0-1.3076.1-1.8106-.2-.503-.5-.7041-1.3-1.0059-2-1.2071 0-2.4142 0-3.6213 0-.3017.7-.6035 1.4-.9053 2.1-.5029-.1-1.3077.2-1.6094-.3 0-.5.3017-.9.5029-1.3.503-1.7 1.3077-3.5 2.1124-5.2zm1.6095.6c-.4024.9-.8048 1.8-1.2071 2.7h2.4142c-.4024-.9-.8048-1.8-1.2071-2.7z"/><path d="m20.5205 9.3002c0-.5.6036-.6.9053-.6h9.9585c.1006 2.6 0 5.2 0 7.9-.6035-.1-1.6094.2-1.8106-.6-.1006-1.8 0-3.7 0-5.5-2.4142 0-4.929 0-7.3431 0v6c-.6036 0-1.8107.2-1.8107-.7.1006-2.2.1006-4.4.1006-6.5z"/><path d="m34.4016 8.70021c1.5089-.1 3.0178 0 4.6272 0 1.2071 0 2.3136.8 2.5148 1.99999.2012.7-.3018 1.3-.6036 1.9.3018.6.8048 1.3.6036 2-.2012 1.2-1.4083 1.9-2.5148 1.9-1.4083 0-2.8165 0-4.2248 0-.4024 0-1.0059-.2-.9053-.7 0-2.1 0-4.2 0-6.29999-.1006-.4.1006-.8.5029-.8zm1.3077 1.39999v1.8c1.2071 0 2.4142.1 3.5207-.1.8047-.3.7041-1.5-.1006-1.7-1.2071-.1-2.3136 0-3.4201 0zm0 3.2v1.8c1.2071 0 2.3136.1 3.5207-.1.8047-.2.8047-1.5-.1006-1.7-1.1065-.1-2.3136 0-3.4201 0z"/><path d="m46.071 8.70014c1.7101-.5 3.8225-.3 5.1301.9.7042.59996.9054 1.49996.8048 2.39996-.1006 1.1.2012 2.3-.6036 3.2-1.4082 1.5-3.6212 1.7-5.5325 1.1-1.3077-.4-2.5147-1.5-2.3136-2.9.1006-1.1-.3017-2.5.503-3.49996.6035-.5 1.3077-.9 2.0118-1.2zm.7041 1.39996c-.6035.2-1.3076.6-1.3076 1.3 0 .9-.1006 1.9.1006 2.8.7041 1.1 2.213 1.3 3.3195 1 .6035-.2 1.4082-.7 1.4082-1.4 0-.9.1006-1.9-.1006-2.8-.8047-1.09996-2.3136-1.29996-3.4201-.9z"/><path d="m56.3306 8.7002c1.4083-.4 3.0177-.4 4.3254.3.8047.4 1.6095 1.1 1.6095 2.1 0 1.1.1006 2.1 0 3.2-.3018 1.2-1.5089 1.9-2.716 2.2-1.71.4-3.8224.1-5.1301-1.3-.9053-1-.503-2.4-.6036-3.6 0-1.4 1.2071-2.5 2.5148-2.9zm.9053 1.3c-.6035.2-1.3077.5-1.5088 1.1 0 1-.1006 2 0 3 1.0059 1.5 3.7218 1.5 4.7277 0 .1006-1 .2012-2.1 0-3.2-.7041-1-2.1124-1.2-3.2189-.9z"/><path d="m75.8455 15.7003c1.6094-.3 3.1183-.4 4.7277-.4-.5029 1-1.0059 2.1-2.0118 2.9-2.0118 1.6-4.5266 2.3-7.0413 2.9-3.3195.9-6.8402 1.2-10.2603 1.6-.2012 0-.503-.1-.7041-.1l.2011-.2c1.8107-1.6 3.7219-3 5.9349-3.9.3018-.1.6035-.3.8047-.4 1.5089-.7 3.1184-1.2 4.7278-1.6.1006 0 .4024-.1.6036-.1.7041-.2 1.4082-.3 2.1124-.5.3017-.1.7041-.2.9053-.2z"/><path d="m21.2246 19.0002c.8048-.6 2.213-.4 2.6154.5-.8047.1-1.7101-.8-2.4142 0 .503.7 1.6095.1 2.213.8.4024.4 0 1-.5029 1.1-.8048.3-1.8107.2-2.3136-.5.1006-.4.6035-.1.8047 0 .5029.3 1.2071.3 1.5089-.2-.6036-.5-1.5089-.1-2.1125-.6-.2011-.3-.1005-.9.2012-1.1z"/><path d="m2.51471 18.8002c.30177-.3.90532-.2 1.00591.2.40236.8.70413 1.6 1.1065 2.4-.20119 0-.40237 0-.70414.1-.10059-.3-.30177-.5-.40236-.8-.40237 0-.80473 0-1.20709 0-.20119.3-.30178.5-.40237.8-.20118 0-.50295-.1-.60354-.1.40236-.8.70413-1.8 1.20709-2.6zm0 1.4h.90532c-.20119-.3-.30178-.6-.40237-1-.30177.4-.40236.7-.50295 1z"/><path d="m5.02976 18.8002c.20118 0 .50295-.1.60354-.1v2.9c-.20118-.1-.70414-.1-.60354-.4 0-.9 0-1.6 0-2.4z"/><path d="m6.53809 18.7003c.80473.1 1.91123-.3 2.51477.4.40237.5 0 1-.40236 1.4.20118.3.30177.7.50295 1-.20118 0-.50295 0-.70413 0-.20119-.3-.40237-.6-.60355-1-.30177 0-.60354 0-.80472 0v1c-.20119 0-.50296-.1-.60355-.1 0-.9.10059-1.8.10059-2.7zm.60355.5v.8c.50295-.1 1.60945.2 1.40827-.6-.40237-.3-.90532-.2-1.40827-.2z"/><path d="m9.95827 18.8002c.20123 0 .50293-.1.70413-.1v2.2c.4024.1.8047.1 1.2071 0 0-.7 0-1.4 0-2.1.2012 0 .503-.1.6035-.1 0 .7-.1005 1.4 0 2.2.3018.3.8048.1 1.2071.1 0-.7 0-1.4 0-2.1.2012 0 .503 0 .6036-.1v2.2c-.4024.5-1.0059.8-1.6095.6-.9053-.3-2.0118.5-2.6153-.5-.30181-.8-.10063-1.6-.10063-2.3z"/><path d="m15.6924 19.0002c.2012-.5.9054-.5 1.1065 0 .4024.8.7042 1.7 1.1065 2.5-.6035.1-.9053-.3-1.1065-.8-.4023 0-.8047 0-1.3076 0-.1006.3-.2012.5-.3018.8-.2012 0-.503-.1-.7041-.1.5029-.8.8047-1.6 1.207-2.4zm.1006 1.2h.9054c-.1006-.3-.3018-.6-.4024-.9-.1006.3-.3018.6-.503.9z"/><path d="m17.7041 18.7001c.2012 0 .503 0 .7041-.1.3018.4.6036.8.9054 1.2.3017-.4.6035-.7.8047-1.1.2012 0 .6035 0 .8047-.1-.4024.6-.9053 1.1-1.3077 1.8-.1006.4 0 .8-.1006 1.1-.9053 0-.4023-1-.8047-1.4-.3018-.4-.6035-.9-1.0059-1.4z"/></g><path d="m25.248 11.6001h1.5089v5.8c-.5029-.1-1.3077.2-1.5089-.5 0-1.8.1006-3.6 0-5.3z" fill="#038344"/><path d="m80.5732 15.3c2.1124 0 4.1242.3 6.136.7-2.1124 1.5-4.2248 2.8-6.5384 3.9-5.8342 2.6-12.4732 3.6-18.911 2.8 3.4201-.5 6.9407-.7 10.2602-1.6 2.5148-.6 4.929-1.4 7.0414-2.9 1.0059-.8 1.5088-1.9 2.0118-2.9z" fill="#4ebeed"/></svg>

<svg width="87" height="25" viewBox="0 0 87 25" fill="none" xmlns="http://www.w3.org/2000/svg">
<path d="M80.0705 2.1001H80.4729C80.5735 6.5001 80.6741 10.9001 80.6741 15.3001C79.0646 15.3001 77.4552 15.5001 75.9463 15.7001C75.9463 12.2001 75.8457 8.7001 75.7451 5.1001C76.5498 4.4001 77.254 3.7001 77.9581 3.0001C78.4611 2.5001 79.2658 2.5001 80.0705 2.1001Z" fill="#63B152"/>
<path d="M82.2833 2.1001H83.6915C83.7921 2.6001 83.8927 3.0001 83.6915 3.5001C82.7862 6.9001 81.9815 10.3001 81.0762 13.7001C81.0762 9.9001 81.2774 6.0001 81.3779 2.2001C81.6797 2.1001 81.9815 2.1001 82.2833 2.1001Z" fill="#63B152"/>
<path d="M69.4073 11.9002C71.218 9.8002 73.0286 7.7002 75.141 5.7002C75.0404 9.1002 75.141 12.4002 75.0404 15.8002C74.3363 15.9002 73.6321 16.1002 72.928 16.3002C72.928 13.7002 73.0286 11.1002 72.928 8.5002C72.5256 11.1002 72.6262 13.8002 72.3245 16.4002C70.715 16.8002 69.1055 17.4002 67.5967 18.0002C67.7979 16.6002 67.6973 15.1002 67.8985 13.7002C68.3008 13.0002 68.9044 12.5002 69.4073 11.9002Z" fill="#63B152"/>
<path d="M60.8574 22.3001C62.7686 20.0001 64.5793 17.7001 66.4905 15.4001C66.5911 16.4001 66.6917 17.4001 66.7923 18.3001C64.5793 19.4001 62.6681 20.8001 60.8574 22.3001Z" fill="#63B152"/>
<path d="M1.10645 9.3002C1.10645 8.7002 1.71 8.7002 2.21295 8.7002C3.62122 8.7002 5.02949 8.7002 6.43777 8.7002C7.54426 8.7002 8.65076 9.6002 8.85195 10.7002C9.05313 11.4002 8.55017 12.0002 8.2484 12.6002C8.55017 13.2002 8.95254 13.7002 8.85195 14.4002C8.75135 15.6002 7.64486 16.5002 6.43777 16.5002C5.23068 16.5002 4.12418 16.5002 2.91709 16.5002C2.31354 16.5002 1.6094 16.6002 1.00586 16.2002V16.1002C1.00586 16.1002 1.00586 16.2002 1.10645 16.2002C1.10645 13.9002 1.00586 11.6002 1.10645 9.3002ZM2.91709 10.1002C2.91709 10.7002 2.91709 11.3002 2.91709 11.9002C4.02359 11.9002 5.13008 12.0002 6.23658 11.9002C6.73954 11.9002 7.24249 11.2002 7.04131 10.7002C6.94072 10.3002 6.43777 10.1002 6.0354 10.1002C4.9289 10.0002 3.92299 10.1002 2.91709 10.1002ZM2.91709 13.3002C2.91709 13.9002 2.91709 14.5002 2.91709 15.1002C4.02359 15.0002 5.23068 15.2002 6.33717 15.0002C7.1419 14.8002 7.1419 13.5002 6.23658 13.3002C5.13008 13.2002 4.02359 13.3002 2.91709 13.3002Z" fill="#02508B"/>
<path d="M12.9757 9.6003C13.4787 8.3003 15.8928 8.3003 16.2952 9.7003C17.3011 12.0003 18.307 14.3003 19.3129 16.5003C18.7094 16.5003 18.0053 16.6003 17.5023 16.3003C16.9993 15.8003 16.7982 15.0003 16.4964 14.3003C15.2893 14.3003 14.0822 14.3003 12.8751 14.3003C12.5734 15.0003 12.2716 15.7003 11.9698 16.4003C11.4669 16.3003 10.6621 16.6003 10.3604 16.1003C10.3604 15.6003 10.6621 15.2003 10.8633 14.8003C11.3663 13.1003 12.171 11.3003 12.9757 9.6003ZM14.5852 10.2003C14.1828 11.1003 13.7804 12.0003 13.3781 12.9003C14.1828 12.9003 14.9875 12.9003 15.7923 12.9003C15.3899 12.0003 14.9875 11.1003 14.5852 10.2003Z" fill="#02508B"/>
<path d="M20.5205 9.3002C20.5205 8.8002 21.1241 8.7002 21.4258 8.7002C24.7453 8.7002 28.0648 8.7002 31.3843 8.7002C31.4849 11.3002 31.3843 13.9002 31.3843 16.6002C30.7808 16.5002 29.7749 16.8002 29.5737 16.0002C29.4731 14.2002 29.5737 12.3002 29.5737 10.5002C27.1595 10.5002 24.6447 10.5002 22.2306 10.5002C22.2306 12.5002 22.2306 14.5002 22.2306 16.5002C21.627 16.5002 20.4199 16.7002 20.4199 15.8002C20.5205 13.6002 20.5205 11.4002 20.5205 9.3002Z" fill="#02508B"/>
<path d="M34.4016 8.70021C35.9105 8.60021 37.4194 8.70021 39.0288 8.70021C40.2359 8.70021 41.3424 9.50021 41.5436 10.7002C41.7448 11.4002 41.2418 12.0002 40.94 12.6002C41.2418 13.2002 41.7448 13.9002 41.5436 14.6002C41.3424 15.8002 40.1353 16.5002 39.0288 16.5002C37.6205 16.5002 36.2123 16.5002 34.804 16.5002C34.4016 16.5002 33.7981 16.3002 33.8987 15.8002C33.8987 13.7002 33.8987 11.6002 33.8987 9.50021C33.7981 9.10021 33.9993 8.70021 34.4016 8.70021ZM35.7093 10.1002C35.7093 10.7002 35.7093 11.3002 35.7093 11.9002C36.9164 11.9002 38.1235 12.0002 39.23 11.8002C40.0347 11.5002 39.9341 10.3002 39.1294 10.1002C37.9223 10.0002 36.8158 10.1002 35.7093 10.1002ZM35.7093 13.3002C35.7093 13.9002 35.7093 14.5002 35.7093 15.1002C36.9164 15.1002 38.0229 15.2002 39.23 15.0002C40.0347 14.8002 40.0347 13.5002 39.1294 13.3002C38.0229 13.2002 36.8158 13.3002 35.7093 13.3002Z" fill="#02508B"/>
<path d="M46.071 8.70014C47.7811 8.20014 49.8935 8.40014 51.2011 9.60014C51.9053 10.2001 52.1065 11.1001 52.0059 12.0001C51.9053 13.1001 52.2071 14.3001 51.4023 15.2001C49.9941 16.7001 47.7811 16.9001 45.8698 16.3001C44.5621 15.9001 43.3551 14.8001 43.5562 13.4001C43.6568 12.3001 43.2545 10.9001 44.0592 9.90014C44.6627 9.40014 45.3669 9.00014 46.071 8.70014ZM46.7751 10.1001C46.1716 10.3001 45.4675 10.7001 45.4675 11.4001C45.4675 12.3001 45.3669 13.3001 45.5681 14.2001C46.2722 15.3001 47.7811 15.5001 48.8876 15.2001C49.4911 15.0001 50.2958 14.5001 50.2958 13.8001C50.2958 12.9001 50.3964 11.9001 50.1952 11.0001C49.3905 9.90014 47.8816 9.70014 46.7751 10.1001Z" fill="#02508B"/>
<path d="M56.3306 8.7002C57.7389 8.3002 59.3483 8.3002 60.656 9.0002C61.4607 9.4002 62.2655 10.1002 62.2655 11.1002C62.2655 12.2002 62.3661 13.2002 62.2655 14.3002C61.9637 15.5002 60.7566 16.2002 59.5495 16.5002C57.8395 16.9002 55.7271 16.6002 54.4194 15.2002C53.5141 14.2002 53.9164 12.8002 53.8158 11.6002C53.8158 10.2002 55.0229 9.1002 56.3306 8.7002ZM57.2359 10.0002C56.6324 10.2002 55.9282 10.5002 55.7271 11.1002C55.7271 12.1002 55.6265 13.1002 55.7271 14.1002C56.733 15.6002 59.4489 15.6002 60.4548 14.1002C60.5554 13.1002 60.656 12.0002 60.4548 10.9002C59.7507 9.9002 58.3424 9.7002 57.2359 10.0002Z" fill="#02508B"/>
<path d="M75.8455 15.7003C77.4549 15.4003 78.9638 15.3003 80.5732 15.3003C80.0703 16.3003 79.5673 17.4003 78.5614 18.2003C76.5496 19.8003 74.0348 20.5003 71.5201 21.1003C68.2006 22.0003 64.6799 22.3003 61.2598 22.7003C61.0586 22.7003 60.7568 22.6003 60.5557 22.6003L60.7568 22.4003C62.5675 20.8003 64.4787 19.4003 66.6917 18.5003C66.9935 18.4003 67.2952 18.2003 67.4964 18.1003C69.0053 17.4003 70.6148 16.9003 72.2242 16.5003C72.3248 16.5003 72.6266 16.4003 72.8278 16.4003C73.5319 16.2003 74.236 16.1003 74.9402 15.9003C75.2419 15.8003 75.6443 15.7003 75.8455 15.7003Z" fill="#02508B"/>
<path d="M21.2246 19.0002C22.0294 18.4002 23.4376 18.6002 23.84 19.5002C23.0353 19.6002 22.1299 18.7002 21.4258 19.5002C21.9288 20.2002 23.0353 19.6002 23.6388 20.3002C24.0412 20.7002 23.6388 21.3002 23.1359 21.4002C22.3311 21.7002 21.3252 21.6002 20.8223 20.9002C20.9229 20.5002 21.4258 20.8002 21.627 20.9002C22.1299 21.2002 22.8341 21.2002 23.1359 20.7002C22.5323 20.2002 21.627 20.6002 21.0234 20.1002C20.8223 19.8002 20.9229 19.2002 21.2246 19.0002Z" fill="#02508B"/>
<path d="M2.51471 18.8002C2.81648 18.5002 3.42003 18.6002 3.52062 19.0002C3.92298 19.8002 4.22475 20.6002 4.62712 21.4002C4.42593 21.4002 4.22475 21.4002 3.92298 21.5002C3.82239 21.2002 3.62121 21.0002 3.52062 20.7002C3.11825 20.7002 2.71589 20.7002 2.31353 20.7002C2.11234 21.0002 2.01175 21.2002 1.91116 21.5002C1.70998 21.5002 1.40821 21.4002 1.30762 21.4002C1.70998 20.6002 2.01175 19.6002 2.51471 18.8002ZM2.51471 20.2002C2.81648 20.2002 3.11825 20.2002 3.42003 20.2002C3.21884 19.9002 3.11825 19.6002 3.01766 19.2002C2.71589 19.6002 2.6153 19.9002 2.51471 20.2002Z" fill="#02508B"/>
<path d="M5.02976 18.8002C5.23094 18.8002 5.53271 18.7002 5.6333 18.7002C5.6333 19.7002 5.6333 20.6002 5.6333 21.6002C5.43212 21.5002 4.92916 21.5002 5.02976 21.2002C5.02976 20.3002 5.02976 19.6002 5.02976 18.8002Z" fill="#02508B"/>
<path d="M6.53809 18.7003C7.34282 18.8003 8.44932 18.4003 9.05286 19.1003C9.45523 19.6003 9.05286 20.1003 8.6505 20.5003C8.85168 20.8003 8.95227 21.2003 9.15345 21.5003C8.95227 21.5003 8.6505 21.5003 8.44932 21.5003C8.24813 21.2003 8.04695 20.9003 7.84577 20.5003C7.544 20.5003 7.24223 20.5003 7.04105 20.5003C7.04105 20.8003 7.04105 21.2003 7.04105 21.5003C6.83986 21.5003 6.53809 21.4003 6.4375 21.4003C6.4375 20.5003 6.53809 19.6003 6.53809 18.7003ZM7.14164 19.2003C7.14164 19.4003 7.14164 19.8003 7.14164 20.0003C7.64459 19.9003 8.75109 20.2003 8.54991 19.4003C8.14754 19.1003 7.64459 19.2003 7.14164 19.2003Z" fill="#02508B"/>
<path d="M9.95827 18.8002C10.1595 18.8002 10.4612 18.7002 10.6624 18.7002C10.6624 19.4002 10.6624 20.2002 10.6624 20.9002C11.0648 21.0002 11.4671 21.0002 11.8695 20.9002C11.8695 20.2002 11.8695 19.5002 11.8695 18.8002C12.0707 18.8002 12.3725 18.7002 12.473 18.7002C12.473 19.4002 12.3725 20.1002 12.473 20.9002C12.7748 21.2002 13.2778 21.0002 13.6801 21.0002C13.6801 20.3002 13.6801 19.6002 13.6801 18.9002C13.8813 18.9002 14.1831 18.9002 14.2837 18.8002C14.2837 19.5002 14.2837 20.3002 14.2837 21.0002C13.8813 21.5002 13.2778 21.8002 12.6742 21.6002C11.7689 21.3002 10.6624 22.1002 10.0589 21.1002C9.75709 20.3002 9.95827 19.5002 9.95827 18.8002Z" fill="#02508B"/>
<path d="M15.6924 19.0002C15.8936 18.5002 16.5978 18.5002 16.7989 19.0002C17.2013 19.8002 17.5031 20.7002 17.9054 21.5002C17.3019 21.6002 17.0001 21.2002 16.7989 20.7002C16.3966 20.7002 15.9942 20.7002 15.4913 20.7002C15.3907 21.0002 15.2901 21.2002 15.1895 21.5002C14.9883 21.5002 14.6865 21.4002 14.4854 21.4002C14.9883 20.6002 15.2901 19.8002 15.6924 19.0002ZM15.793 20.2002C16.0948 20.2002 16.3966 20.2002 16.6984 20.2002C16.5978 19.9002 16.3966 19.6002 16.296 19.3002C16.1954 19.6002 15.9942 19.9002 15.793 20.2002Z" fill="#02508B"/>
<path d="M17.7041 18.7001C17.9053 18.7001 18.2071 18.7001 18.4082 18.6001C18.71 19.0001 19.0118 19.4001 19.3136 19.8001C19.6153 19.4001 19.9171 19.1001 20.1183 18.7001C20.3195 18.7001 20.7218 18.7001 20.923 18.6001C20.5206 19.2001 20.0177 19.7001 19.6153 20.4001C19.5147 20.8001 19.6153 21.2001 19.5147 21.5001C18.6094 21.5001 19.1124 20.5001 18.71 20.1001C18.4082 19.7001 18.1065 19.2001 17.7041 18.7001Z" fill="#02508B"/>
<path d="M25.248 11.6001C25.751 11.6001 26.254 11.6001 26.7569 11.6001C26.7569 13.5001 26.7569 15.5001 26.7569 17.4001C26.254 17.3001 25.4492 17.6001 25.248 16.9001C25.248 15.1001 25.3486 13.3001 25.248 11.6001Z" fill="#038344"/>
<path d="M80.5732 15.3C82.6856 15.3 84.6974 15.6 86.7092 16C84.5968 17.5 82.4844 18.8 80.1708 19.9C74.3366 22.5 67.6976 23.5 61.2598 22.7C64.6799 22.2 68.2005 22 71.52 21.1C74.0348 20.5 76.449 19.7 78.5614 18.2C79.5673 17.4 80.0702 16.3 80.5732 15.3Z" fill="#4EBEED"/>
</svg>
